X:5
T:Alexandra Park
R:polka 32 reel
S:Kerr's Merry Melodies
B:English Choice, Nick Barber, pub mally.com
M:2/2
L:1/8
Q:1/4=180
K:G
|:"G"d2BG d2BG|"C"cdef "D"agfe|
"G"d2BG d2BG|"D"ABcB ABc^c|
"G"d2BG d2BG|"C"cdef "D"agfe|
"G"dgfe "D"dcBA|"G"G2B2 G4:|
:"D"A2FD "Em"B2GE|"Am"c2AF "Bm"d3d|
"C"edcB cBAG|"D"AGFE D4|
A2FD "Em"B2GE|"Am"c2AF "Bm"d3d|
"C"edcB "D"cBAG|ADFA "G"G4:|]

